X:1
T:Title
%%score { ( 1 3 ) | ( 2 4 ) }
L:1/8
Q:1/4=100
M:4/4
K:Db
V:1 treble nm="Grand Piano"
V:3 treble 
V:2 bass 
V:4 bass 
V:1
 A3 G F2 A2 | d2 B2 A2 F2 | B2 A2 G2 F2 | [FG]3 [DF] z2 G,2 | A3 G F2 A2 | d2 B2 A2 F2 | %6
w: Haldor~Lillenas * * *||||||
 B2 B2 [DFA]2 [A,DF]2 | [A,DF]2[K:bass] [G,CE]2 [F,D]4 | [FA]3 [GB] [FA]2 [Fd]2 | [Gc]6 z2 | %10
w: ||||
 A3 B A2 e2 | d6 z2 | [Fd]3 [Fd] [Fd]2 [FA]2 | [GB]2 [Gc]2 [DFd]2 [DGB]2 | %14
w: ||||
 [DFA]3 [DFB] [A,DF]2[K:bass] [G,CE]2 | [F,D]6 z2 |] %16
w: ||
V:2
 [D,F,D]3 [D,B,D] [D,A,D]2 [D,F,D]2 | [G,B,D]2 [G,D]2 [D,F,D]2 [D,A,D]2 | %2
 [G,D]2 [F,A,D]2 [E,A,C]2 [D,A,D]2 | [B,,=G,]3 [B,,G,] A,2 z2 | %4
 [D,F,D]3 [D,B,D] [D,A,D]2 [D,F,D]2 | [G,B,D]2 [G,D]2 [D,F,D]2 [D,A,D]2 | [G,D]2 [G,DG]2 D,2 D,2 | %7
 A,,2 A,,2 D,4 | [D,D]3 [D,D] [D,D]2 [D,D]2 | [A,E]2 A,2 A,2 z2 | [A,CG]3 [A,CG] [A,CG]2 [A,CG]2 | %11
 z2 B,2 A,2 z2 | [D,A,]3 [D,A,] [D,A,]2 [D,D]2 | [G,D]2 [E,A,]2 D,2 G,2 | A,3 A, A,,2 A,,2 | %15
 D,6 z2 |] %16
V:3
 x8 | x8 | x8 | z4 [CE]4 | x8 | x8 | x8 | x2[K:bass] x6 | x8 | z2 E2 D2 z2 | x8 | [DF]2 G2 F2 z2 | %12
 x8 | x8 | x6[K:bass] x2 | x8 |] %16
V:4
 x8 | x8 | x8 | z4 A,,4 | x8 | x8 | x8 | x8 | x8 | x8 | x8 | D,6 z2 | x8 | x8 | x8 | x8 |] %16

